X: 143
M: 2/4
L: 1/8
K: G
edef | gf/e/ dc | B2!+!A2 | G3 :|
d |\
g>"2.f."agf | !+!e3e | a>bag | !+!f3a |\
gfed | ^cAde | f2!+!e2 | d3d |
g>agf | !+!e3d | cBAG | !+!A3G |\
edef | gf/e/ dc | B2!+!A2 | G3 |]

